X: 1393
T: Mutrıbâ Çekmiş Aşîrân`ı Hicâz`e
C: Ahmet Avni Konuk
O: Turkey
F: http://compmusic.upf.edu/node/140
N: hicazasiran--kupe--aksaksemai--mutriba--ahmet_avni_konuk
N: makam= hicazasiran
N: form= kupe
N: usul= aksaksemai = 10/8
M: 10/8
L: 1/16
K: C _7/8B ^f ^c 
Q: 1/4=102
%%MIDI tuningsystem comma53
d4 d^3/4ccB BAB2 c2d4z2  | e4 d2g2 =f2e2 d2ed ^3/4c2z2  | 
w:  Mut rı *  bâ  *  *  *  *  *  çek  |  miş  A şî *  *  *  râ  | 
^3/4c4 cBcd cBc2 e=fed cBA2  | g2=f2 e2d3^3/4cB3/2A/ Bcd4z2  | 
w:  nı  Hi *  câ *  *  *  *  *  *  ze   |  fasl_ *  o kur    | 
^3/4f4 f2d2 e2f2 a2g2 f2e2  | ded2 ^3/4c2d3/2c/ BcBc BAA4z2  | 
w:  Dest_ i gâh_ *  *  *  ı   |  aşk  *  *  i çin *  *  *  *  *  *  *  de   | 
A4 =B2=c2 B2_2/4B2 A2d^3/4c _7/8BAG2  | \
w:  â şı kın  *  *  *  kal  | 
ABd^3/4c BAAG G^3/4FFE FEE4z2  | 
w:  bin  *  *  *  do *  kur    | 
|


